!!!!SEGMENT: pl-wn--mus-iii-128-848-cim_badarzewska-tekla--mazure.krn
!!!cenid: 18xx:3537
!!!COM: Bądarzewska, Tekla
!!!COM-rismID: pe30005936
!!!CDT: ~1830-1861/09/29
!!!CNT: Polish
!!!OTL: Mazure
!!!PDT:
!!!AGN:
!!!SMS-siglum: PL-Wn
!!!SMS-shelfmark: Mus.III.128.848 Cim.
!!!SMS-shelfwork: W
!!!SMS-variant:
!!!SMS-altvar:
!!!NIFC-rismSourceID:
!!!NIFC-rismChildID:
!!!AIN: 1 piano
!!!NIFC-islandoraID:
!!!URL-pdf-islandora:
!!!URL-scan: https://polona.pl/item/oeuvres-de-thecla-badarzewska-pour-le-pianoforte-3-douce-reverie,ODExMjU1MzU/2 @EN{Scan on Polona} @PL{Skany w portalu Polona}
!!!ONB-nifc:
**kern	**kern	**fing	**dynam
*part1	*part1	*part1	*part1
*staff2	*staff1	*	*
*Ipiano	*Iempty	*	*
*I"Piano	*	*	*
*mI"Pianoforte	*	*	*
*I'pf	*	*	*
*ICklav	*	*	*
*clefF4	*clefG2	*	*
*k[b-e-]	*k[b-e-]	*	*
*g:	*g:	*	*
*M3/4	*M3/4	*	*
*>[A,B,B,C,D,C,E,F]	*	*	*
*>A	*	*	*
=1	=1	=1	=1
*xywh-3:171,1163,2933,725	*xywh-3:171,1163,2933,725	*	*
.	(16qqddd/LL	.	p
!	!LO:MO:mod=!LO&colon;TX&colon;a&colon;i&colon;t=leggiero	!	!
!	!LO:TX:b:t=leggiero.	!	!
.	16qqeee-/JJ)	.	.
!	!LO:MO:mod=*modern:null	!	!
*	*null	*	*
*	*below	*	*
*	*ped	*	*
4G/ 4GG/	4ddd'\	.	.
.	(16qqccc/LL	.	.
.	16qqddd/JJ)	.	.
4d\ 4B-\ 4G\	4ccc'\	.	.
.	(16qqbb-/LL	.	.
.	16qqccc/JJ)	.	.
4d\ 4B-\ 4G\	4bb-'\	.	.
=2	=2	=2	=2
.	(16qqaa/LL	.	.
.	16qqbb-/JJ)	.	.
4G/ 4GG/	8aa\L	.	.
.	8gg\J	.	.
4d\ 4B-\ 4G\	4.dd\	.	.
4d\ 4B-\ 4G\	.	.	.
*	*Xped	*	*
.	8dd\	.	.
=3	=3	=3	=3
.	(16qqdd/LL	.	.
.	16qqff/JJ)	.	.
*	*ped	*	*
4D/ 4DD/	8ee-\L	.	.
.	8dd\J	.	.
4c\ 4A\ 4F#X\ 4D\	4.cc\	.	.
4c\ 4A\ 4F#\ 4D\	.	.	.
*	*Xped	*	*
.	8cc\	.	.
=4	=4	=4	=4
.	(8qqa/L	.	.
.	8qqcc/J)	.	.
*	*ped	*	*
4G/ 4GG/	8b-\L	.	.
.	8a\J	.	.
4d\ 4B-\ 4G\	4.g/	.	.
4d\ 4B-\ 4G\	.	.	.
*	*Xped	*	*
.	8g/	.	.
!!LO:LB:g=original
=5	=5	=5	=5
*xywh-3:109,1816,2971,826	*xywh-3:109,1816,2971,826	*	*
.	(16qqddd/LL	.	p
!	!LO:MO:mod=!LO&colon;TX&colon;a&colon;i&colon;t=leggiero	!	!
!	!LO:TX:b:t=leggiero.	!	!
.	16qqeee-/JJ)	.	.
*	*ped	*	*
4G/ 4GG/	4ddd'\	.	.
.	(16qqccc/LL	.	.
.	16qqddd/JJ)	.	.
4d\ 4B-\ 4G\	4ccc'\	.	.
.	(16qqbb-/LL	.	.
.	16qqccc/JJ)	.	.
4d\ 4B-\ 4G\	4bb-'\	.	.
=6	=6	=6	=6
.	(16qqaa/LL	.	.
.	16qqbb-/JJ)	.	.
4G/ 4GG/	8aa\L	.	.
.	8gg\J	.	.
4d\ 4B-\ 4G\	4.dd\	.	.
4d\ 4B-\ 4G\	.	.	.
*	*Xped	*	*
.	8dd\	.	.
=7	=7	=7	=7
.	(16qqdd/LL	.	.
.	16qqff/JJ)	.	.
*	*ped	*	*
4D/ 4DD/	8ee-\L	.	.
.	8dd\J	.	.
.	(16qqa/LL	.	.
.	16qqcc/JJ)	.	.
4c\ 4A\ 4F#X\ 4D\	4.b-\	.	.
4c\ 4A\ 4F#\ 4D\	.	.	.
*	*Xped	*	*
.	8a/	.	.
=8	=8	=8	=8
*	*ped	*	*
4B-\ 4G\	4g/	.	.
*	*Xped	*	*
4G/ 4GG/	4gg\ 4dd\ 4b-\	.	.
4r	4r	.	.
!!LO:LB:g=original
=9	=9	=9	=9
*xywh-3:131,2643,2956,724	*xywh-3:131,2643,2956,724	*	*
*	*ped	*	*
4F/ 4FF/	4cc\	.	.
.	(16qqcc/LL	.	.
.	16qqaa/JJ)	.	.
4f\ 4c\ 4A\	4.gg^\	.	.
4f\ 4c\ 4A\	.	.	.
*	*Xped	*	*
.	8ff\	.	.
=10	=10	=10	=10
*	*ped	*	*
!	!LO:MO:mod=!null:null	!	!
!	!LO:TX:b:t=cres-cen-do:ext2=cd:problem=dynamics with extention lines	!	!LO:MO:mod=!LO&colon;HP&colon;b
!	!	!	!null
4B-\ 4BB-\	4dd\	.	<
!	!LO:SIC:s=(16qqdd/LL:v	!	!
.	16qqdd/LL	.	.
!	!LO:SIC:s=16qqaa/JJ):v	!	!
.	16qqaa/JJ	.	.
4f\ 4d\ 4B-\	4.gg^\	.	.
4f\ 4d\ 4B-\	.	.	.
!	!LO:MO:mod=*modern:null	!	!
*	*null	*	*
*	*Xped	*	*
.	8ff\	.	.
=11	=11	=11	=11
*	*ped	*	*
4D/ 4DD/	4ee-\	.	.
.	(16qqeee-/	.	.
4f#X\ 4d\ 4c\ 4A\	4.ddd^\)	.	.
4f#\ 4d\ 4c\ 4A\	.	.	.
*	*Xped	*	*
.	8ccc\	.	.
=12	=12	=12	=12
*xywh-3:109,3390,3066,944	*xywh-3:109,3390,3066,944	*	*
.	(16qqbb-/LL	.	.
.	16qqccc/JJ)	.	.
*	*ped	*	*
4G/ 4GG/	4bb-^\	.	.
4d\ 4B-\ 4G\	4.aa\	.	.
4d\ 4B-\ 4G\	.	.	.
*	*Xped	*	*
.	8gg\	.	[[
!!LO:LB:g=original
=13	=13	=13	=13
4D/ 4DD/	4dd\	.	.
.	(16qqdd/LL	.	.
.	16qqff/JJ)	.	.
4c\ 4A\ 4F#X\ 4D\	4.ee-\	.	.
4c\ 4A\ 4F#\ 4D\	.	.	.
.	8dd\	.	.
=14	=14	=14	=14
.	(16qqb-/LL	.	.
.	16qqcc/JJ)	.	.
4G/ 4GG/	4b-\	.	.
4d\ 4B-\ 4G\	4.a/	.	.
4d\ 4B-\ 4G\	.	.	.
.	8g/	.	.
=15	=15	=15	=15
4D/ 4DD/	(32f#X/LLL	.	.
.	32g/	.	.
.	32f#/	.	.
.	32en/	.	.
.	32f#/	.	.
.	32a/	.	.
.	32cc/	.	.
.	32ee-X/JJJ)	.	.
4c\ 4A\ 4F#X\ 4D\	4.dd\	.	.
4c\ 4A\ 4D\	.	.	.
.	8f#/	.	.
=16	=16	=16	=16
4B-\ 4G\	(<4g/	.	.
4GG/ 4GGG/	4gg\ 4dd\ 4b-\ 4g\)	.	.
4r	4r	.	.
!!LO:PB:g=original
*>B	*	*	*
=17!|:	=17!|:	=17!|:	=17!|:
*xywh-4:443,315,2936,886	*xywh-4:443,315,2936,886	*	*
!	!LO:TX:a:t=con energia.	!	!
*	*ped	*	*
4F/ 4FF/	4a/ 4f/ 4e-/ 4c/	.	ff
4.f\ 4.F\	4.fff\ 4.ff\	.	.
8e-\ 8E-\	8eee-\ 8ee-\	.	.
*	*Xped	*	*
=18	=18	=18	=18
8.d\L 8.D\	8.ddd\L 8.dd\	.	.
16e-\K 16E-\	16eee-\K 16ee-\	.	.
8d\ 8D\	8ddd\ 8dd\	.	.
8c\ 8C\	8ccc\ 8cc\	.	.
8B-\ 8BB-\	8bb-\ 8b-\	.	.
8A\J 8AA\	8aa\J 8a\	.	.
=19	=19	=19	=19
*	*ped	*	*
4F#X/ 4FF#X/	4ff#X\ 4f#X\	.	.
8qe-/ 8qE-/	8qeee-/ 8qee-/	.	.
4.d\ 4.D\	4.ddd\ 4.dd\	.	.
8c\ 8C\	8ccc\ 8cc\	.	.
*	*Xped	*	*
=20	=20	=20	=20
8.B-\L 8.BB-\	8.bb-\L 8.b-\	.	.
16A\Jk 16AA\	16aa\Jk 16a\	.	.
4G\ 4GG\	4gg\ 4g\	.	.
4r	4r	.	.
!!LO:LB:g=original
=21	=21	=21	=21
*xywh-4:433,1212,2941,771	*xywh-4:433,1212,2941,771	*	*
4D/ 4DD/	4dd/ 4d/	.	pp
4f#X\ 4d\ 4c\ 4A\	4.ddd\ 4.dd\	.	.
4f#\ 4d\ 4c\ 4A\	.	.	.
.	8ccc\ 8cc\	.	.
=22	=22	=22	=22
4G/ 4GG/	8.bb-\L 8.b-\	.	.
.	16ccc\K 16cc\	.	.
4d\ 4B-\ 4G\	8bb-\ 8b-\	.	.
.	8aa\J 8a\	.	.
4d\ 4B-\ 4G\	4gg\ 4g\	.	.
=23	=23	=23	=23
8.F#X/L 8.FF#X/	8.ff#X/L 8.f#X/	.	.
16E-/K 16EE-/	16ee-/K 16e-/	.	.
8.D/ 8.DD/	8.dd/ 8.d/	.	.
16C/K 16CC/	16cc/K 16c/	.	.
8.BB-/ 8.BBB-/	8.b-/ 8.B-/	.	.
16AA/Jk 16AAA/	16a/Jk 16A/	.	.
=24	=24	=24	=24
4GG/ 4GGG/	4g/ 4G/	.	.
4r	4r	.	.
4r	4r	.	.
!!LO:LB:g=original
=25	=25	=25	=25
*xywh-4:368,1911,2996,806	*xywh-4:368,1911,2996,806	*	*
*	*ped	*	*
4F/ 4FF/	4a/ 4f/ 4e-/ 4c/	.	ff
4.f\ 4.F\	4.fff\ 4.ff\	.	.
8e-\ 8E-\	8eee-\ 8ee-\	.	.
*	*Xped	*	*
=26	=26	=26	=26
8.d\L 8.D\	8.ddd\L 8.dd\	.	.
16e-\K 16E-\	16eee-\K 16ee-\	.	.
8d\ 8D\	8ddd\ 8dd\	.	.
8c\ 8C\	8ccc\ 8cc\	.	.
8B-\ 8BB-\	8bb-\ 8b-\	.	.
8A\J 8AA\	8aa\J 8a\	.	.
=27	=27	=27	=27
*	*ped	*	*
4F#X/ 4FF#X/	4ff#X\ 4f#X\	.	.
8qe-/ 8qE-/	8qeee-/ 8qee-/	.	.
4.d\ 4.D\	4.ddd\ 4.dd\	.	.
8c\ 8C\	8ccc\ 8cc\	.	.
*	*Xped	*	*
=28	=28	=28	=28
8.B-\L 8.BB-\	8.bb-\L 8.b-\	.	.
16A\Jk 16AA\	16aa\Jk 16a\	.	.
4G\ 4GG\	4gg\ 4g\	.	.
4r	4r	.	.
!!LO:LB:g=original
=29	=29	=29	=29
*xywh-4:378,2635,2921,861	*xywh-4:378,2635,2921,861	*	*
4D/ 4DD/	4f#X/ 4d/ 4c/	.	pp
4f#X\ 4d\ 4c\ 4A\	4.ddd\ 4.dd\	.	.
4f#\ 4d\ 4c\ 4A\	.	.	.
.	8ccc\ 8cc\	.	.
=30	=30	=30	=30
4G/ 4GG/	8.bb-\L 8.b-\	.	.
.	16ccc\K 16cc\	.	.
4d\ 4B-\ 4G\	8bb-\ 8b-\	.	.
.	8aa\J 8a\	.	.
4d\ 4B-\ 4G\	4gg\ 4g\	.	.
=31	=31	=31	=31
8.F#X/L 8.FF#X/	8.ff#X/L 8.f#X/	.	.
16E-/K 16EE-/	16ee-/K 16e-/	.	.
8.D/ 8.DD/	8.dd/ 8.d/	.	.
16C/K 16CC/	16cc/K 16c/	.	.
8.BB-/ 8.BBB-/	8.b-/ 8.B-/	.	.
16AA/Jk 16AAA/	16a/Jk 16A/	.	.
=32	=32	=32	=32
4GG/ 4GGG/	4g/ 4G/	.	.
4r	4r	.	.
4r	4r	.	.
!!LO:LB:g=original
*>C	*	*	*
=33:|!|:	=33:|!|:	=33:|!|:	=33:|!|:
*xywh-4:368,3397,2966,921	*xywh-4:368,3397,2966,921	*	*
*	*ped	*	*
4F/ 4FF/	8a/ 8f/ 8e-/ 8c/	.	.
.	8ff\L 8f\	.	.
4f\ 4e-\ 4c\ 4A\	8aa\ 8a\	.	.
.	8ccc\ 8cc\	.	.
4f\ 4e-\ 4c\ 4A\	8.aaa\ 8.aa\	.	.
.	16ggg\Jk 16gg\	.	.
*	*Xped	*	*
=34	=34	=34	=34
*	*ped	*	*
4B-\ 4BB-\	4ggg\ 4gg\	.	.
4d\ 4B-\	4r	.	.
4f\ 4d\	8r	.	.
*	*8va	*	*
.	8fff/ 8ff/	.	.
*	*Xped	*	*
=35	=35	=35	=35
*	*ped	*	*
4c\ 4C\	8fff\L 8ff\	.	.
.	8eeen\ 8een\	.	.
*clefG2	*	*	*
4a/ 4e-/ 4c/	8fff\ 8ff\	.	.
.	8aaa\ 8aa\	.	.
4cc/ 4a/ 4e-/	8cccc\ 8ccc\	.	.
*	*Xped	*	*
.	8eeee-X\J 8eee-X\	.	.
*clefF4	*	*	*
=36	=36	=36	=36
*	*ped	*	*
4d\ 4D\	4eeee-\ 4eee-\	.	.
*clefG2	*	*	*
4b-/ 4g/ 4d/	4r	.	.
4dd/ 4b-/ 4g/	8r	.	.
.	8dddd\ 8ddd\	.	.
*clefF4	*Xped	*	*
!!LO:LB:g=original
=37	=37	=37	=37
*xywh-5:193,456,2906,756	*xywh-5:193,456,2906,756	*	*
*	*ped	*	*
4d\ 4D\	8dddd\L 8ddd\	.	.
.	8bbb-\ 8bb-\	.	.
*clefG2	*	*	*
*	*X8va	*	*
4b-/ 4g/ 4d/	8ggg\ 8gg\	.	.
.	8ddd\ 8dd\	.	.
4b-/ 4g/ 4d/	8bb-\ 8b-\	.	.
.	8gg\J 8g\	.	.
*clefF4	*Xped	*	*
=38	=38	=38	=38
*	*ped	*	*
4c\ 4C\	4fff\ 4ff\	.	.
*clefG2	*	*	*
4a/ 4e-/ 4c/	4r	.	.
4cc/ 4a/ 4e-/	8r	.	.
.	8eee-\ 8ee-\	.	.
*clefF4	*Xped	*	*
=39	=39	=39	=39
*	*ped	*	*
4d\ 4D\	8r	.	.
.	8ddd\L 8dd\	.	.
*clefG2	*	*	*
4b-/ 4g/ 4d/	8ccc#X\ 8cc#X\	.	.
.	8ddd\ 8dd\	.	.
4cc/ 4a/ 4f#X/ 4d/	8.eeen\ 8.een\	.	.
.	16fff#X\Jk 16ff#X\	.	.
*	*Xped	*	*
=40	=40	=40	=40
*	*ped	*	*
4g/ 4G/	4aaa\ 4aa\	.	.
4b-/ 4g/ 4d/	4r	.	.
4dd/ 4b-/ 4g/	8r	.	.
.	8ggg\ 8gg\	.	.
*clefF4	*Xped	*	*
!!LO:LB:g=original
=41	=41	=41	=41
*xywh-5:163,1178,2981,776	*xywh-5:163,1178,2981,776	*	*
*	*ped	*	*
4F/ 4FF/	(16g\LL 16e-\ 16c\	.	.
.	16f\	.	.
.	16a\	1	.
.	16cc\JJ	.	.
4f\ 4e-\ 4c\ 4A\	20ee-\LL	.	.
!	!LO:MO:mod=!null:null	!	!
*	*Xtuplet	*	*
.	20ff\	5	.
.	20aa\	1	.
.	20ccc\	.	.
.	20eee-\JJ)	.	.
*	*8va	*	*
4f\ 4e-\ 4c\ 4A\	8.aaa\L	.	.
*	*Xped	*	*
.	16ggg\Jk	.	.
=42	=42	=42	=42
*	*ped	*	*
4B-\ 4BB-\	4ggg\	.	.
4d\ 4B-\	4r	.	.
4f\ 4d\	8r	.	.
.	8fff\	.	.
*	*Xped	*	*
=43	=43	=43	=43
*	*ped	*	*
!	!LO:TX:t=P:problem=obiegnik z kasownikiem poniżej	!	!
4c\ 4C\	4fffS$\	.	.
*clefG2	*	*	*
4a/ 4e-/ 4c/	8ffff\L	.	.
.	8eeee-\	.	.
4cc/ 4a/ 4e-/	8dddd\	.	.
.	8cccc\J	.	.
*clefF4	*Xped	*	*
=44	=44	=44	=44
*	*ped	*	*
4d\ 4D\	4eeee-\	.	.
*clefG2	*	*	*
4b-/ 4g/ 4d/	4r	.	.
4dd/ 4b-/ 4g/	8r	.	.
.	8dddd\	.	.
*	*X8va	*	*
*clefF4	*Xped	*	*
!!LO:LB:g=original
=45	=45	=45	=45
*xywh-5:198,1893,2936,821	*xywh-5:198,1893,2936,821	*	*
*	*ped	*	*
4d\ 4D\	8r	.	.
*	*8va	*	*
!	!LO:TX:t=P:problem=obiegnik z krzyżykiem poniżej	!	!
.	8dddd$\	.	.
*clefG2	*	*	*
4b-/ 4g/ 4d/	16gggg\LL	.	.
.	16dddd\	.	.
.	16bbb-\	.	.
.	16ggg\JJ	.	.
*	*X8va	*	*
4dd/ 4b-/ 4g/	16ddd\LL	.	.
.	16bb-\	.	.
.	16gg\	.	.
.	16dd\JJ	.	.
*clefF4	*Xped	*	*
=46	=46	=46	=46
*	*ped	*	*
4c\ 4C\	4ff\	.	.
*clefG2	*	*	*
4a/ 4e-/ 4c/	4r	.	.
4cc/ 4a/ 4e-/	8r	.	.
.	8ee-\	.	.
*clefF4	*Xped	*	*
*>D	*	*	*
=47	=47	=47	=47
*	*ped	*	*
!	!LO:MO:mod=!null:null	!	!
!	!LO:TX:a:t=1	!	!
4d\ 4D\	8r	.	.
.	(16qqdd/LL	.	.
!	!LO:MO:mod=!LO&colon;TX&colon;a&colon;i&colon;t=ritenuto	!	!
!	!LO:TX:b:t=ritenuto.	!	!
.	16qqee-/JJ)	.	.
.	(8dd\L	.	.
*clefG2	*	*	*
4b-/ 4g/ 4d/	8cc#X\	.	.
.	8dd\J	.	.
4cc/ 4f#X/ 4d/	8.bb-\L	.	.
.	16aa\Jk)	.	. 
*	*Xped	*	*
=48	=48	=48	=48
*	*ped	*	*
4g/ 4G/	4aa\	.	.
4b-/ 4g/ 4d/	4r	.	.
4dd/ 4b-/ 4g/	8r	.	.
.	8gg\	.	.
*clefF4	*Xped	*	*
!!LO:LB:g=original
*>E	*	*	*
=49:|!	=49:|!	=49:|!	=49:|!
*xywh-5:183,2620,2941,826	*xywh-5:183,2620,2941,826	*	*
*	*ped	*	*
!	!LO:MO:mod=!null:null	!	!
!	!LO:TX:a:t=2	!	!
4d\ 4D\	8r	.	.
.	8ddd\L 8dd\	.	.
*clefG2	*	*	*
4b-/ 4g/ 4d/	8ccc#X\ 8cc#X\	.	.
.	8ddd\ 8dd\	.	.
*	*Xped	*	*
4cc/ 4a/ 4f#X/ 4d/	8.eeen\ 8.een\	.	.
.	16fff#X\Jk 16ff#X\	.	.
=50	=50	=50	=50
*	*ped	*	*
4b-/ 4g/	4ggg\ 4gg\	.	.
*clefF4	*	*	*
4G/ 4GG/	4r	.	.
*	*Xped	*	*
4r	4r	.	.
*>F	*	*	*
==51	==51	==51	==51
*	*ped	*	*
4F/ 4FF/	8r	.	f
.	8ff\ 8f\	.	.
!	!LO:MO:mod=!LO&colon;TX&colon;a&colon;i&colon;t=con energia	!	!
!	!LO:TX:b:t=con energia.	!	!
4e-\ 4c\ 4A\ 4F\	4eee-\ 4ee-\	.	.
4e-\ 4c\ 4A\ 4F\	8ddd\L 8dd\	.	.
.	8ccc\J 8cc\	.	.
*	*Xped	*	*
=52	=52	=52	=52
*	*ped	*	*
4B-\ 4BB-\	8bb-\L 8b-\	.	.
.	8dd\J 8d\	.	.
4d\ 4B-\ 4F\	4.gg\ 4.g\	.	.
4d\ 4B-\ 4F\	.	.	.
.	8ff\ 8f\	.	.
*	*Xped	*	*
=53	=53	=53	=53
*	*ped	*	*
4F/ 4FF/	8r	.	.
.	8ff\L 8f\	.	.
4e-\ 4c\ 4A\ 4F\	8een\ 8en\	.	.
.	8ff\ 8f\	.	.
4e-\ 4c\ 4A\ 4F\	8gg\ 8g\	.	.
*	*Xped	*	*
.	8aa\J 8a\	.	.
!!LO:LB:g=original
=54	=54	=54	=54
*xywh-5:193,3477,3006,871	*xywh-5:193,3477,3006,871	*	*
*	*ped	*	*
4B-\ 4BB-\	8bb-\L 8b-\	.	.
.	8ddd\J 8dd\	.	.
4d\ 4B-\ 4F\	4.ggg\ 4.gg\	.	.
4d\ 4B-\ 4F\	.	.	.
.	8fff\ 8ff\	.	.
*	*Xped	*	*
=55	=55	=55	=55
*	*ped	*	*
4c\ 4C\	8r	.	.
*	*8va	*	*
.	8fff\ 8ff\	.	.
*clefG2	*	*	*
4a/ 4e-/ 4c/	4eeee-\ 4eee-\	.	.
4a/ 4e-/ 4c/	8dddd\L 8ddd\	.	.
.	8cccc\J 8ccc\	.	.
*clefF4	*Xped	*	*
=56	=56	=56	=56
*	*ped	*	*
4d\ 4D\	8bbb-\L 8bb-\	.	.
.	8ggg\ 8gg\	.	.
*clefG2	*	*	*
*	*X8va	*	*
4b-/ 4g/ 4d/	8ddd\ 8dd\	.	.
.	8bb-\ 8b-\	.	.
4b-/ 4g/ 4d/	8gg\ 8g\	.	.
.	8dd\J 8d\	.	.
*clefF4	*Xped	*	*
=57	=57	=57	=57
*	*ped	*	*
4D/ 4DD/	8r	.	.
.	8dd/ 8d/	.	.
4F#X\ 4D\	4.b-/ 4.B-/	.	.
4F#\ 4D\	.	.	.
.	8a/ 8A/	.	.
*	*Xped	*	*
=58	=58	=58	=58
*	*ped	*	*
4GG/	4g/ 4G/	.	.
4GGG/	4r	.	.
*	*Xped	*	*
4r	4r	.	.
==	==	==	==
*-	*-	*-	*-
!!!system-decoration: [(s1,s2)]
!!!RDF**kern: > = above
!!!RDF**kern: < = below
!!!IIIF: https://polona.pl/iiif/item/ODExMjU1MzU/manifest.json
!!!filter-modern: tie -s | humtr -p | sic -sq | shed -e "s/LO:DY:(a|b|rj)/LO:dy:$1/L" | shed -e "s/TX(.*):t=P:/tx$1:t=P:/LG" | modori -m | autostem -r | shed -e "s/yy//" | shed -k -e "s/\(y([^y])/($1/" | shed -e "s/-//B" | shed -e "s/^(\d+[\/\\]right)/$1yy/I; s/^(\d+[\/\\]left)/$1yy/I" | shed -e "s/^(X?)rep$/$1REP/I" | shed -k -e "s/[<>]//g" | shed -e "s/^custos:/Xcustos:/I" | shed -k -e "s/:TUP:/:tup:/L" | shed -k -e "s/r[a-gA-G]+/r/D" | rid -lid
!!!ENC: Berenika Jozajtis
!!!END: 2022-02-07
!!!ENC: Leszek Kubiak
!!!END: 2022-02-21
!!!EED-modern: Antoni Szymański
!!!END-modern: 2022-07-29
!!!ENC-iiif: Marta Opryszak
!!!END-iiif: 2022-08-21
!!!YEC: Copyright 2022 Narodowy Instytut Fryderyka Chopina (https://polishscores.org)
!!!YEM: License CC-BY-4.0 (https://creativecommons.org/licenses/by/4.0)
